Numix-GalliumOS/32/mimetypes/gnome-mime-text-x-makefile.svg

<?xml version="1.0" encoding="UTF-8" standalone="no"?>
<svg
   xmlns:dc="http://purl.org/dc/elements/1.1/"
   xmlns:cc="http://creativecommons.org/ns#"
   xmlns:rdf="http://www.w3.org/1999/02/22-rdf-syntax-ns#"
   xmlns:svg="http://www.w3.org/2000/svg"
   xmlns="http://www.w3.org/2000/svg"
   xmlns:sodipodi="http://sodipodi.sourceforge.net/DTD/sodipodi-0.dtd"
   xmlns:inkscape="http://www.inkscape.org/namespaces/inkscape"
   width="32"
   height="32"
   viewBox="0 0 32 32"
   id="svg2"
   version="1.1"
   inkscape:version="0.48.5 r10040"
   sodipodi:docname="gnome-mime-text-x-makefile.svg">
  <metadata
     id="metadata22">
    <rdf:RDF>
      <cc:Work
         rdf:about="">
        <dc:format>image/svg+xml</dc:format>
        <dc:type
           rdf:resource="http://purl.org/dc/dcmitype/StillImage" />
      </cc:Work>
    </rdf:RDF>
  </metadata>
  <defs
     id="defs20" />
  <sodipodi:namedview
     pagecolor="#ffffff"
     bordercolor="#666666"
     borderopacity="1"
     objecttolerance="10"
     gridtolerance="10"
     guidetolerance="10"
     inkscape:pageopacity="0"
     inkscape:pageshadow="2"
     inkscape:window-width="1280"
     inkscape:window-height="970"
     id="namedview18"
     showgrid="true"
     inkscape:zoom="29.5"
     inkscape:cx="14.636298"
     inkscape:cy="14.718962"
     inkscape:window-x="0"
     inkscape:window-y="0"
     inkscape:window-maximized="1"
     inkscape:current-layer="svg2">
    <inkscape:grid
       type="xygrid"
       id="grid3010" />
  </sodipodi:namedview>
  <path
     style="fill:#dcdcdc;fill-opacity:1"
     d="M 5.335888,2.975e-4 C 4.648414,3.125e-4 4,0.6767884 4,1.3940317 L 4,30.606268 C 4,31.282757 4.687474,32 5.335888,32 l 21.327332,0 c 0.648414,0 1.335888,-0.717243 1.335888,-1.393732 L 28,9.0000002 l -9,-9 z"
     id="path4-1"
     inkscape:connector-curvature="0"
     sodipodi:nodetypes="ssssssccs" />
  <path
     style="fill:#000000;fill-opacity:0.19599998"
     d="M 21,9.0000002 28,16 28,9.0000002 z"
     id="path6-4"
     inkscape:connector-curvature="0"
     sodipodi:nodetypes="cccc" />
  <path
     style="fill:#ffffff;fill-opacity:0.39200003"
     d="m 19.000306,2.975e-4 8.991594,8.9997027 -7.613262,0 c -0.672951,0 -1.378332,-0.7134896 -1.378332,-1.3864402 z"
     id="path8-6"
     inkscape:connector-curvature="0"
     sodipodi:nodetypes="ccssc" />
  <g
     style="fill:#888"
     id="g10">
    <path
       d="M 20.253906 14.707031 C 21.007812 14.9375 20.347656 16.015625 21.429688 16.542969 C 22.664062 17.144531 23.277344 15.621094 24.019531 16.710938 C 24.761719 17.796875 22.996094 17.628906 23.042969 18.90625 C 23.09375 20.183594 24.84375 19.914062 24.1875 21.042969 C 23.53125 22.167969 22.800781 20.6875 21.617188 21.363281 C 20.429688 22.039062 21.566406 23.289062 20.167969 23.332031 C 18.769531 23.375 19.808594 22.0625 18.570312 21.457031 C 17.335938 20.855469 16.722656 22.378906 15.980469 21.292969 C 15.238281 20.203125 17.003906 20.375 16.957031 19.09375 C 16.90625 17.816406 15.15625 18.085938 15.8125 16.960938 C 16.46875 15.832031 17.199219 17.3125 18.382812 16.636719 C 19.570312 15.960938 18.433594 14.710938 19.832031 14.667969 C 20.007812 14.664062 20.144531 14.671875 20.253906 14.707031 Z M 20.238281 17.960938 C 19.617188 17.839844 19.003906 18.207031 18.871094 18.78125 C 18.738281 19.351562 19.136719 19.917969 19.761719 20.039062 C 20.382812 20.160156 20.996094 19.796875 21.128906 19.222656 C 21.261719 18.648438 20.863281 18.082031 20.238281 17.960938 Z "
       id="path12" />
    <path
       d="M 14.253906 9.371094 C 15.007812 9.601562 14.347656 10.679688 15.429688 11.207031 C 16.664062 11.8125 17.277344 10.289062 18.019531 11.375 C 18.761719 12.460938 16.996094 12.292969 17.042969 13.574219 C 17.09375 14.851562 18.84375 14.578125 18.1875 15.707031 C 17.53125 16.835938 16.800781 15.355469 15.617188 16.03125 C 14.429688 16.707031 15.566406 17.957031 14.167969 18 C 12.769531 18.039062 13.808594 16.730469 12.570312 16.125 C 11.335938 15.523438 10.722656 17.042969 9.980469 15.957031 C 9.238281 14.871094 11.003906 15.039062 10.957031 13.761719 C 10.90625 12.484375 9.15625 12.753906 9.8125 11.625 C 10.46875 10.496094 11.199219 11.976562 12.382812 11.300781 C 13.570312 10.625 12.433594 9.375 13.832031 9.335938 C 14.007812 9.328125 14.144531 9.339844 14.253906 9.371094 Z M 14.238281 12.628906 C 13.617188 12.503906 13.003906 12.871094 12.871094 13.445312 C 12.738281 14.019531 13.136719 14.585938 13.761719 14.707031 C 14.382812 14.828125 14.996094 14.460938 15.128906 13.886719 C 15.261719 13.3125 14.863281 12.75 14.238281 12.628906 Z "
       id="path14" />
    <path
       d="M 12.253906 16.707031 C 13.007812 16.9375 12.347656 18.015625 13.429688 18.542969 C 14.664062 19.144531 15.277344 17.621094 16.019531 18.710938 C 16.761719 19.796875 14.996094 19.628906 15.042969 20.90625 C 15.09375 22.183594 16.84375 21.914062 16.1875 23.042969 C 15.53125 24.167969 14.800781 22.6875 13.617188 23.363281 C 12.429688 24.039062 13.566406 25.289062 12.167969 25.332031 C 10.769531 25.375 11.808594 24.0625 10.570312 23.457031 C 9.335938 22.855469 8.722656 24.378906 7.980469 23.292969 C 7.238281 22.203125 9.003906 22.375 8.957031 21.09375 C 8.90625 19.816406 7.15625 20.085938 7.8125 18.960938 C 8.46875 17.832031 9.199219 19.3125 10.382812 18.636719 C 11.570312 17.960938 10.433594 16.710938 11.832031 16.667969 C 12.007812 16.664062 12.144531 16.671875 12.253906 16.707031 Z M 12.238281 19.960938 C 11.617188 19.839844 11.003906 20.207031 10.871094 20.78125 C 10.738281 21.351562 11.136719 21.917969 11.761719 22.039062 C 12.382812 22.160156 12.996094 21.796875 13.128906 21.222656 C 13.261719 20.648438 12.863281 20.082031 12.238281 19.960938 Z "
       id="path16" />
  </g>
</svg>

<svg xmlns="http://www.w3.org/2000/svg" viewBox="0 0 32 32">
 <path d="m 5.336 0 c -0.687 0 -1.336 0.676 -1.336 1.394 l 0 29.21 c 0 0.676 0.687 1.394 1.336 1.394 l 21.327 0 c 0.648 0 1.336 -0.717 1.336 -1.394 l 0.001 -21.606 l -9 -9 z" style="fill:#dcdcdc;fill-opacity:1"/>
 <path d="m 21 9 7 7 0 -7 z" style="fill:#000;fill-opacity:0.196"/>
 <path d="m 19 0 8.992 9 -7.613 0 c -0.673 0 -1.378 -0.713 -1.378 -1.386 z" style="fill:#fff;fill-opacity:0.392"/>
 <g style="fill:#888">
  <path d="m 20.254 14.707 c 0.754 0.23 0.094 1.309 1.176 1.836 c 1.234 0.602 1.848 -0.922 2.59 0.168 c 0.742 1.086 -1.023 0.918 -0.977 2.195 c 0.051 1.277 1.801 1.01 1.145 2.137 c -0.656 1.125 -1.387 -0.355 -2.57 0.32 c -1.188 0.676 -0.051 1.926 -1.449 1.969 c -1.398 0.043 -0.359 -1.27 -1.598 -1.875 c -1.234 -0.602 -1.848 0.922 -2.59 -0.164 c -0.742 -1.09 1.023 -0.918 0.977 -2.199 c -0.051 -1.277 -1.801 -1.01 -1.145 -2.133 c 0.656 -1.129 1.387 0.352 2.57 -0.324 c 1.188 -0.676 0.051 -1.926 1.449 -1.969 c 0.176 -0.004 0.313 0.004 0.422 0.039 m -0.016 3.254 c -0.621 -0.121 -1.234 0.246 -1.367 0.82 c -0.133 0.57 0.266 1.137 0.891 1.258 c 0.621 0.121 1.234 -0.242 1.367 -0.816 c 0.133 -0.574 -0.266 -1.141 -0.891 -1.262 Z"/>
  <path d="m 14.254 9.371 c 0.754 0.23 0.094 1.309 1.176 1.836 c 1.234 0.605 1.848 -0.918 2.59 0.168 c 0.742 1.086 -1.023 0.918 -0.977 2.199 c 0.051 1.277 1.801 1 1.145 2.133 c -0.656 1.129 -1.387 -0.352 -2.57 0.324 c -1.188 0.676 -0.051 1.926 -1.449 1.969 c -1.398 0.039 -0.359 -1.27 -1.598 -1.875 c -1.234 -0.602 -1.848 0.918 -2.59 -0.168 c -0.742 -1.086 1.023 -0.918 0.977 -2.195 c -0.051 -1.277 -1.801 -1.01 -1.145 -2.137 c 0.656 -1.129 1.387 0.352 2.57 -0.324 c 1.188 -0.676 0.051 -1.926 1.449 -1.965 c 0.176 -0.008 0.313 0.004 0.422 0.035 m -0.016 3.258 c -0.621 -0.125 -1.234 0.242 -1.367 0.816 c -0.133 0.574 0.266 1.141 0.891 1.262 c 0.621 0.121 1.234 -0.246 1.367 -0.82 c 0.133 -0.574 -0.266 -1.137 -0.891 -1.258 Z"/>
  <path d="m 12.254 16.707 c 0.754 0.23 0.094 1.309 1.176 1.836 c 1.234 0.602 1.848 -0.922 2.59 0.168 c 0.742 1.086 -1.023 0.918 -0.977 2.195 c 0.051 1.277 1.801 1.01 1.145 2.137 c -0.656 1.125 -1.387 -0.355 -2.57 0.32 c -1.188 0.676 -0.051 1.926 -1.449 1.969 c -1.398 0.043 -0.359 -1.27 -1.598 -1.875 c -1.234 -0.602 -1.848 0.922 -2.59 -0.164 c -0.742 -1.09 1.023 -0.918 0.977 -2.199 c -0.051 -1.277 -1.801 -1.01 -1.145 -2.133 c 0.656 -1.129 1.387 0.352 2.57 -0.324 c 1.188 -0.676 0.051 -1.926 1.449 -1.969 c 0.176 -0.004 0.313 0.004 0.422 0.039 m -0.016 3.254 c -0.621 -0.121 -1.234 0.246 -1.367 0.82 c -0.133 0.57 0.266 1.137 0.891 1.258 c 0.621 0.121 1.234 -0.242 1.367 -0.816 c 0.133 -0.574 -0.266 -1.141 -0.891 -1.262 Z"/>
 </g>
</svg>
